packages/katcn/src/icons/svg/arrow10.svg

<svg width="24" height="25" viewBox="0 0 24 25" fill="none" xmlns="http://www.w3.org/2000/svg">
<path d="M21.9908 5.25237L16.945 1.74389C16.2385 1.24268 15.3303 1.14244 14.5229 1.54341C13.8165 1.94438 13.3119 2.64607 13.3119 3.44801V3.94922H11.0917C5.54128 3.94922 1 8.25964 1 13.5725C1 18.8853 5.54128 23.296 11.0917 23.296H19.367C20.3761 23.296 21.1835 22.4941 21.1835 21.4916V19.0858C21.1835 18.0834 20.3761 17.2815 19.367 17.2815H11.0917C8.87156 17.2815 7.15596 15.5773 7.15596 13.5725C7.15596 11.5676 8.97248 9.96376 11.0917 9.96376H13.4128V10.5652C13.4128 11.3672 13.9174 12.1691 14.6239 12.5701C14.9266 12.7705 15.3303 12.8708 15.7339 12.8708C16.2385 12.8708 16.6422 12.7705 17.0459 12.4698L22.0917 8.96134C22.6972 8.56037 23 7.85867 23 7.15698C23 6.45528 22.5963 5.65334 21.9908 5.25237ZM20.8807 7.15698L15.8349 10.6655C15.7339 10.7657 15.5321 10.6655 15.5321 10.6655C15.4312 10.5652 15.4312 10.5652 15.4312 10.465V8.96134C15.4312 8.35988 15.0275 7.95891 14.422 7.95891H11.0917C7.76147 7.95891 5.13761 10.5652 5.13761 13.6727C5.13761 16.7802 7.86239 19.3865 11.0917 19.3865H19.1651V21.2911H11.0917C6.65138 21.2911 3.01835 17.8829 3.01835 13.6727C3.01835 9.46255 6.65138 6.05431 11.0917 6.05431H14.422C15.0275 6.05431 15.4312 5.65334 15.4312 5.05189V3.44801C15.4312 3.44801 15.4312 3.34777 15.5321 3.24753C15.5321 3.24753 15.7339 3.14728 15.8349 3.24753L20.8807 6.75601C20.9817 6.75601 20.9817 6.85625 20.9817 6.85625C20.9817 6.85625 20.8807 7.05673 20.8807 7.15698Z" fill="black"/>
</svg>

<svg xmlns="http://www.w3.org/2000/svg" fill="none" viewBox="0 0 24 25"><path fill="#000" d="m21.99 5.252-5.045-3.508a2.34 2.34 0 0 0-2.422-.2c-.707.4-1.211 1.102-1.211 1.904v.501h-2.22C5.542 3.95 1 8.26 1 13.573c0 5.312 4.541 9.723 10.092 9.723h8.275c1.01 0 1.816-.802 1.816-1.804v-2.406a1.803 1.803 0 0 0-1.816-1.804h-8.275c-2.22 0-3.936-1.705-3.936-3.71s1.816-3.608 3.936-3.608h2.32v.601c0 .802.505 1.604 1.212 2.005.303.2.706.3 1.11.3.504 0 .908-.1 1.312-.4l5.046-3.509c.605-.4.908-1.102.908-1.804s-.404-1.504-1.01-1.905m-1.11 1.905-5.045 3.508c-.101.1-.303 0-.303 0-.1-.1-.1-.1-.1-.2V8.961c0-.601-.405-1.002-1.01-1.002h-3.33c-3.33 0-5.954 2.606-5.954 5.714 0 3.107 2.724 5.714 5.954 5.714h8.073v1.904h-8.073c-4.44 0-8.074-3.408-8.074-7.618s3.633-7.619 8.074-7.619h3.33c.605 0 1.01-.4 1.01-1.002V3.448s0-.1.1-.2c0 0 .202-.1.303 0l5.046 3.508c.1 0 .1.1.1.1s-.1.2-.1.301"/></svg>
